X:1
T: Miss Lantour's Reel
C:R. Mackintosh
R:Reel
Q: 232
K:D
M:4/4
L:1/8
|:f|d2 AB1/2c1/2 dA FD|GE ed ce eg|fd Be cA dA|BG EA FD Df|
d2 AB1/2c1/2 dA FD|GE ed ce eg|fd Be cA dA|BG EA FD Dg|
fa bf ge ag|fd Be cA A=c|BG dB AF dA|BG EA FD Dg|
fa bf ge ag|fd Be cA A=c|Bd gb Ad fa|Ac eg fd d:|
